T: Wee Michael's March
M: 3/4
L: 1/8
K: Dmaj
A, ED/E/|F3 A GF|E<G, D2 A,<G,|A,3 F G<F|E3 A, ED/E/|
F3  A GF|G<G, D2 A,<G,|A,3 F E<D| D3 A, ED/E/|
F3 A GF|E<G, D2 A,<G,|A,3 F G<F|E3 E FG|
A2 F2 GF|G<G, D2 A,<G,|A,3 F E>D|D3 A, DE/F/||
G2 GF G<A|F2 ED D<(B,|B,)A, G<F (E2|E)E DE/F/ G2|
GF G<A F2|ED D A,2 F|E>D D3 A,|DE/F/ G2 GF|G<A F2 ED|
D<(B, B,)A, G<F|E3 E FG|A2 F2 GF|G<G, D2 A,<G,|A,3 F E>D|D6||
